bundle/image/pages/questions/img/text.svg

<svg width="326" height="34" viewBox="0 0 326 34" fill="none" xmlns="http://www.w3.org/2000/svg">
<path d="M0 33.5475L0 0.452472L14.3572 0.452472C16.8258 0.452472 18.9859 0.937263 20.8374 1.90685C22.6889 2.87643 24.1289 4.23923 25.1575 5.99525C26.1861 7.75127 26.7004 9.80355 26.7004 12.1521C26.7004 14.5222 26.1699 16.5745 25.1088 18.3089C24.0585 20.0434 22.5806 21.3793 20.675 22.3165C18.7802 23.2538 16.5659 23.7224 14.0323 23.7224L5.45702 23.7224L5.45702 16.7414L12.2133 16.7414C13.2744 16.7414 14.1785 16.5583 14.9256 16.192C15.6835 15.815 16.2628 15.2817 16.6634 14.5922C17.0748 13.9027 17.2806 13.0894 17.2806 12.1521C17.2806 11.2041 17.0748 10.3961 16.6634 9.72814C16.2628 9.04943 15.6835 8.53232 14.9256 8.17681C14.1785 7.81052 13.2744 7.62738 12.2133 7.62738H9.03007L9.03007 33.5475H0Z" fill="#F8EC2C"/>
<path d="M47.9438 10.7947C47.8572 9.71737 47.4512 8.87706 46.7257 8.27376C46.0111 7.67047 44.923 7.36882 43.4613 7.36882C42.5301 7.36882 41.7668 7.48194 41.1713 7.70817C40.5866 7.92364 40.1535 8.2199 39.872 8.59696C39.5905 8.97402 39.4443 9.40494 39.4335 9.88974C39.4118 10.2883 39.4822 10.6492 39.6446 10.9724C39.8178 11.2849 40.0885 11.5703 40.4566 11.8289C40.8248 12.0767 41.2958 12.3029 41.8696 12.5076C42.4435 12.7123 43.1256 12.8954 43.916 13.057L46.6445 13.6388C48.4852 14.0266 50.0606 14.5383 51.3707 15.174C52.6808 15.8096 53.7527 16.5583 54.5864 17.4202C55.4201 18.2712 56.0319 19.23 56.4217 20.2966C56.8223 21.3631 57.028 22.5266 57.0388 23.7871C57.028 25.9632 56.4812 27.8055 55.3985 29.3137C54.3157 30.8219 52.7674 31.9693 50.7535 32.7557C48.7504 33.5421 46.3413 33.9354 43.5262 33.9354C40.6353 33.9354 38.1125 33.5098 35.9579 32.6587C33.814 31.8077 32.1466 30.4987 30.9556 28.7319C29.7754 26.9544 29.1799 24.6812 29.1691 21.9125L37.7444 21.9125C37.7985 22.9252 38.053 23.7763 38.5077 24.4658C38.9625 25.1553 39.6013 25.6778 40.4242 26.0333C41.2579 26.3888 42.2486 26.5665 43.3963 26.5665C44.3599 26.5665 45.1666 26.448 45.8162 26.211C46.4659 25.974 46.9585 25.6454 47.2942 25.2253C47.6298 24.8051 47.803 24.3257 47.8139 23.7871C47.803 23.2807 47.6352 22.839 47.3104 22.462C46.9964 22.0741 46.4767 21.7294 45.7513 21.4278C45.0258 21.1153 44.0459 20.8245 42.8116 20.5551L39.4984 19.8441C36.5534 19.2085 34.2309 18.1473 32.531 16.6606C30.8419 15.1632 30.0028 13.1217 30.0136 10.5361C30.0028 8.43536 30.5658 6.59854 31.7027 5.02567C32.8504 3.44202 34.4366 2.20849 36.4613 1.32509C38.4969 0.441698 40.8302 0 43.4613 0C46.1465 0 48.4689 0.447085 50.4287 1.34126C52.3885 2.23542 53.8989 3.49588 54.96 5.12263C56.0319 6.73859 56.5733 8.62928 56.5841 10.7947L47.9438 10.7947Z" fill="#F8EC2C"/>
<path d="M59.1096 0.452472L69.1791 0.452472L75.6755 13.8973H75.9354L82.4318 0.452472L92.5013 0.452472L80.288 23.1407V33.5475H71.3229V23.1407L59.1096 0.452472Z" fill="#F8EC2C"/>
<path d="M124.176 12.8631L115.016 12.8631C114.951 12.109 114.777 11.4249 114.496 10.8108C114.225 10.1968 113.846 9.66889 113.359 9.22719C112.883 8.77472 112.303 8.42998 111.621 8.19297C110.939 7.94518 110.165 7.82129 109.299 7.82129C107.783 7.82129 106.5 8.18758 105.45 8.92015C104.41 9.65273 103.62 10.7031 103.078 12.0713C102.548 13.4395 102.283 15.0824 102.283 17C102.283 19.0254 102.553 20.7221 103.095 22.0903C103.647 23.4477 104.443 24.4712 105.482 25.1606C106.521 25.8394 107.772 26.1787 109.234 26.1787C110.067 26.1787 110.815 26.0764 111.475 25.8717C112.135 25.6562 112.709 25.3492 113.197 24.9506C113.684 24.552 114.079 24.0726 114.382 23.5124C114.696 22.9414 114.907 22.3004 115.016 21.5894L124.176 21.654C124.067 23.0545 123.672 24.4819 122.99 25.9363C122.308 27.3799 121.339 28.7158 120.083 29.9439C118.838 31.1613 117.295 32.1416 115.454 32.885C113.613 33.6283 111.475 34 109.039 34C105.986 34 103.246 33.3482 100.821 32.0447C98.4063 30.7411 96.4953 28.8235 95.0877 26.2918C93.691 23.7601 92.9926 20.6629 92.9926 17C92.9926 13.3156 93.7072 10.2129 95.1365 7.69202C96.5657 5.16033 98.493 3.2481 100.918 1.95532C103.344 0.651774 106.05 0 109.039 0C111.139 0 113.072 0.285488 114.837 0.856463C116.602 1.42744 118.15 2.26236 119.482 3.36122C120.814 4.4493 121.886 5.79056 122.698 7.38498C123.51 8.9794 124.002 10.8055 124.176 12.8631Z" fill="#F8EC2C"/>
<path d="M128.272 33.5475V0.452472L137.302 0.452472V13.3802L149.256 13.3802V0.452472L158.286 0.452472V33.5475L149.256 33.5475V20.6198L137.302 20.6198V33.5475H128.272Z" fill="#F8EC2C"/>
<path d="M194.796 17C194.796 20.6844 194.076 23.7925 192.636 26.3241C191.196 28.8451 189.252 30.7573 186.805 32.0608C184.358 33.3536 181.63 34 178.62 34C175.588 34 172.849 33.3482 170.402 32.0447C167.966 30.7304 166.028 28.8127 164.588 26.2918C163.158 23.7601 162.444 20.6629 162.444 17C162.444 13.3156 163.158 10.2129 164.588 7.69202C166.028 5.16033 167.966 3.2481 170.402 1.95532C172.849 0.651774 175.588 0 178.62 0C181.63 0 184.358 0.651774 186.805 1.95532C189.252 3.2481 191.196 5.16033 192.636 7.69202C194.076 10.2129 194.796 13.3156 194.796 17ZM185.506 17C185.506 15.0177 185.241 13.3479 184.71 11.9905C184.191 10.6223 183.416 9.58809 182.388 8.88783C181.37 8.17681 180.114 7.82129 178.62 7.82129C177.126 7.82129 175.864 8.17681 174.836 8.88783C173.818 9.58809 173.044 10.6223 172.513 11.9905C171.994 13.3479 171.734 15.0177 171.734 17C171.734 18.9823 171.994 20.6575 172.513 22.0257C173.044 23.3831 173.818 24.4173 174.836 25.1283C175.864 25.8286 177.126 26.1787 178.62 26.1787C180.114 26.1787 181.37 25.8286 182.388 25.1283C183.416 24.4173 184.191 23.3831 184.71 22.0257C185.241 20.6575 185.506 18.9823 185.506 17Z" fill="#F8EC2C"/>
<path d="M198.974 33.5475V0.452472L208.004 0.452472V26.308L221.452 26.308V33.5475H198.974Z" fill="#F8EC2C"/>
<path d="M256.029 17C256.029 20.6844 255.309 23.7925 253.869 26.3241C252.429 28.8451 250.486 30.7573 248.039 32.0608C245.592 33.3536 242.863 34 239.853 34C236.821 34 234.082 33.3482 231.635 32.0447C229.199 30.7304 227.261 28.8127 225.821 26.2918C224.391 23.7601 223.677 20.6629 223.677 17C223.677 13.3156 224.391 10.2129 225.821 7.69202C227.261 5.16033 229.199 3.2481 231.635 1.95532C234.082 0.651774 236.821 0 239.853 0C242.863 0 245.592 0.651774 248.039 1.95532C250.486 3.2481 252.429 5.16033 253.869 7.69202C255.309 10.2129 256.029 13.3156 256.029 17ZM246.739 17C246.739 15.0177 246.474 13.3479 245.943 11.9905C245.424 10.6223 244.65 9.58809 243.621 8.88783C242.603 8.17681 241.347 7.82129 239.853 7.82129C238.359 7.82129 237.097 8.17681 236.069 8.88783C235.051 9.58809 234.277 10.6223 233.746 11.9905C233.227 13.3479 232.967 15.0177 232.967 17C232.967 18.9823 233.227 20.6575 233.746 22.0257C234.277 23.3831 235.051 24.4173 236.069 25.1283C237.097 25.8286 238.359 26.1787 239.853 26.1787C241.347 26.1787 242.603 25.8286 243.621 25.1283C244.65 24.4173 245.424 23.3831 245.943 22.0257C246.474 20.6575 246.739 18.9823 246.739 17Z" fill="#F8EC2C"/>
<path d="M281.808 11.3764C281.667 10.8055 281.445 10.3045 281.142 9.87357C280.839 9.43188 280.46 9.06021 280.005 8.75856C279.561 8.44614 279.041 8.21451 278.446 8.06369C277.861 7.90209 277.217 7.82129 276.513 7.82129C274.997 7.82129 273.704 8.18219 272.632 8.90399C271.571 9.62579 270.759 10.6654 270.195 12.0228C269.643 13.3802 269.367 15.0177 269.367 16.9354C269.367 18.8745 269.632 20.5336 270.163 21.9125C270.694 23.2915 271.484 24.3473 272.534 25.0799C273.584 25.8124 274.889 26.1787 276.448 26.1787C277.823 26.1787 278.966 25.9794 279.875 25.5808C280.796 25.1822 281.483 24.6166 281.938 23.884C282.393 23.1515 282.62 22.2896 282.62 21.2985L284.179 21.4601H276.578V15.0608L291.325 15.0608V19.6502C291.325 22.6667 290.681 25.2468 289.392 27.3907C288.115 29.5238 286.35 31.1613 284.098 32.3032C281.857 33.4344 279.285 34 276.383 34C273.146 34 270.304 33.3159 267.857 31.9477C265.41 30.5795 263.499 28.6296 262.124 26.0979C260.759 23.5662 260.077 20.5551 260.077 17.0646C260.077 14.3283 260.494 11.9043 261.328 9.79278C262.172 7.68124 263.342 5.89829 264.836 4.44392C266.33 2.97877 268.057 1.87453 270.017 1.13118C271.977 0.377059 274.077 0 276.318 0C278.289 0 280.119 0.280102 281.808 0.840305C283.508 1.38973 285.007 2.17617 286.307 3.19962C287.617 4.21229 288.672 5.4135 289.474 6.80323C290.275 8.19297 290.762 9.71736 290.935 11.3764H281.808Z" fill="#F8EC2C"/>
<path d="M292.608 0.452472L302.678 0.452472L309.174 13.8973H309.434L315.931 0.452472L326 0.452472L313.787 23.1407V33.5475H304.822V23.1407L292.608 0.452472Z" fill="#F8EC2C"/>
</svg>

<svg width="326" height="34" fill="none" xmlns="http://www.w3.org/2000/svg"><path d="M0 33.547V.453h14.357c2.469 0 4.629.485 6.48 1.455 1.852.97 3.292 2.332 4.32 4.088 1.03 1.756 1.543 3.809 1.543 6.157 0 2.37-.53 4.423-1.591 6.157-1.05 1.734-2.528 3.07-4.434 4.008-1.895.937-4.11 1.405-6.643 1.405H5.457v-6.98h6.756c1.061 0 1.966-.184 2.713-.55.758-.377 1.337-.91 1.737-1.6.412-.69.618-1.503.618-2.44 0-.948-.206-1.756-.618-2.424-.4-.679-.98-1.196-1.737-1.551-.748-.366-1.652-.55-2.713-.55H9.03v25.92H0zM47.944 10.795c-.087-1.078-.493-1.918-1.218-2.521-.715-.604-1.803-.905-3.265-.905-.93 0-1.694.113-2.29.34-.584.215-1.017.51-1.299.888a2.19 2.19 0 0 0-.438 1.293c-.022.398.048.76.21 1.082.174.313.445.598.813.857.368.248.839.474 1.413.679.574.204 1.256.387 2.046.549l2.729.582c1.84.388 3.416.9 4.726 1.535 1.31.636 2.382 1.384 3.215 2.246a8.007 8.007 0 0 1 1.836 2.877c.4 1.066.606 2.23.617 3.49-.011 2.176-.558 4.018-1.64 5.527-1.083 1.508-2.632 2.655-4.645 3.442-2.004.786-4.413 1.18-7.228 1.18-2.89 0-5.414-.426-7.568-1.277-2.144-.851-3.811-2.16-5.002-3.927-1.18-1.778-1.776-4.05-1.787-6.82h8.575c.054 1.013.309 1.864.764 2.554.454.69 1.093 1.212 1.916 1.567.834.356 1.825.534 2.972.534.964 0 1.77-.119 2.42-.356.65-.237 1.142-.566 1.478-.986.336-.42.509-.9.52-1.438a2.037 2.037 0 0 0-.504-1.325c-.314-.388-.833-.733-1.559-1.034-.725-.313-1.705-.604-2.94-.873l-3.313-.71c-2.945-.636-5.267-1.698-6.967-3.184-1.69-1.498-2.528-3.54-2.517-6.125-.011-2.1.552-3.937 1.689-5.51 1.147-1.584 2.734-2.818 4.758-3.7C38.497.441 40.831 0 43.461 0c2.686 0 5.008.447 6.968 1.341 1.96.894 3.47 2.155 4.531 3.782 1.072 1.616 1.613 3.506 1.624 5.672h-8.64zM59.11.452h10.07l6.495 13.445h.26L82.432.452h10.07L80.287 23.141v10.407h-8.965V23.14L59.11.452zM124.176 12.863h-9.16a6.17 6.17 0 0 0-.52-2.052 4.643 4.643 0 0 0-1.137-1.584 4.745 4.745 0 0 0-1.738-1.034c-.682-.248-1.456-.372-2.322-.372-1.516 0-2.799.367-3.849 1.1-1.04.732-1.83 1.782-2.372 3.15-.53 1.369-.795 3.011-.795 4.929 0 2.025.27 3.722.812 5.09.552 1.358 1.348 2.381 2.387 3.07 1.039.68 2.29 1.019 3.752 1.019.833 0 1.581-.103 2.241-.307a5.283 5.283 0 0 0 1.722-.921 4.775 4.775 0 0 0 1.185-1.439 5.77 5.77 0 0 0 .634-1.923l9.16.065c-.109 1.4-.504 2.828-1.186 4.282-.682 1.444-1.651 2.78-2.907 4.008-1.245 1.217-2.788 2.198-4.629 2.941-1.841.743-3.979 1.115-6.415 1.115-3.053 0-5.793-.652-8.218-1.955-2.415-1.304-4.326-3.222-5.733-5.753-1.397-2.532-2.095-5.63-2.095-9.292 0-3.684.714-6.787 2.144-9.308 1.429-2.532 3.356-4.444 5.781-5.737C103.344.652 106.05 0 109.039 0c2.1 0 4.033.285 5.798.856 1.765.571 3.313 1.406 4.645 2.505 1.332 1.088 2.404 2.43 3.216 4.024.812 1.594 1.304 3.42 1.478 5.478zM128.272 33.547V.453h9.03V13.38h11.954V.452h9.03v33.096h-9.03V20.62h-11.954v12.927h-9.03zM194.796 17c0 3.684-.72 6.793-2.16 9.324-1.44 2.521-3.384 4.433-5.831 5.737C184.358 33.354 181.63 34 178.62 34c-3.032 0-5.771-.652-8.218-1.955-2.436-1.315-4.374-3.232-5.814-5.753-1.43-2.532-2.144-5.63-2.144-9.292 0-3.684.714-6.787 2.144-9.308 1.44-2.532 3.378-4.444 5.814-5.737C172.849.652 175.588 0 178.62 0c3.01 0 5.738.652 8.185 1.955 2.447 1.293 4.391 3.205 5.831 5.737 1.44 2.52 2.16 5.624 2.16 9.308zm-9.29 0c0-1.982-.265-3.652-.796-5.01-.519-1.368-1.294-2.402-2.322-3.102-1.018-.711-2.274-1.067-3.768-1.067-1.494 0-2.756.356-3.784 1.067-1.018.7-1.792 1.734-2.323 3.103-.519 1.357-.779 3.027-.779 5.009 0 1.982.26 3.657.779 5.026.531 1.357 1.305 2.391 2.323 3.102 1.028.7 2.29 1.05 3.784 1.05 1.494 0 2.75-.35 3.768-1.05 1.028-.71 1.803-1.745 2.322-3.102.531-1.369.796-3.044.796-5.026zM198.974 33.547V.453h9.03v25.856h13.448v7.24h-22.478zM256.029 17c0 3.684-.72 6.793-2.16 9.324-1.44 2.521-3.383 4.433-5.83 5.737-2.447 1.293-5.176 1.939-8.186 1.939-3.032 0-5.771-.652-8.218-1.955-2.436-1.315-4.374-3.232-5.814-5.753-1.43-2.532-2.144-5.63-2.144-9.292 0-3.684.714-6.787 2.144-9.308 1.44-2.532 3.378-4.444 5.814-5.737C234.082.652 236.821 0 239.853 0c3.01 0 5.739.652 8.186 1.955 2.447 1.293 4.39 3.205 5.83 5.737 1.44 2.52 2.16 5.624 2.16 9.308zm-9.29 0c0-1.982-.265-3.652-.796-5.01-.519-1.368-1.293-2.402-2.322-3.102-1.018-.711-2.274-1.067-3.768-1.067-1.494 0-2.756.356-3.784 1.067-1.018.7-1.792 1.734-2.323 3.103-.519 1.357-.779 3.027-.779 5.009 0 1.982.26 3.657.779 5.026.531 1.357 1.305 2.391 2.323 3.102 1.028.7 2.29 1.05 3.784 1.05 1.494 0 2.75-.35 3.768-1.05 1.029-.71 1.803-1.745 2.322-3.102.531-1.369.796-3.044.796-5.026zM281.808 11.376a4.432 4.432 0 0 0-.666-1.502 4.134 4.134 0 0 0-1.137-1.115 4.68 4.68 0 0 0-1.559-.695 7.245 7.245 0 0 0-1.933-.243c-1.516 0-2.809.361-3.881 1.083-1.061.722-1.873 1.761-2.437 3.119-.552 1.357-.828 2.995-.828 4.912 0 1.94.265 3.599.796 4.978.531 1.378 1.321 2.434 2.371 3.167 1.05.732 2.355 1.099 3.914 1.099 1.375 0 2.518-.2 3.427-.598.921-.399 1.608-.964 2.063-1.697.455-.733.682-1.594.682-2.585l1.559.161h-7.601v-6.4h14.747v4.59c0 3.017-.644 5.597-1.933 7.74-1.277 2.134-3.042 3.771-5.294 4.913-2.241 1.131-4.813 1.697-7.715 1.697-3.237 0-6.079-.684-8.526-2.052-2.447-1.369-4.358-3.318-5.733-5.85-1.365-2.532-2.047-5.543-2.047-9.033 0-2.737.417-5.16 1.251-7.272.844-2.112 2.014-3.895 3.508-5.35a14.833 14.833 0 0 1 5.181-3.312C271.977.377 274.077 0 276.318 0c1.971 0 3.801.28 5.49.84 1.7.55 3.199 1.336 4.499 2.36a12.286 12.286 0 0 1 3.167 3.603 11.422 11.422 0 0 1 1.461 4.573h-9.127zM292.608.452h10.07l6.496 13.445h.26L315.931.452H326l-12.213 22.689v10.407h-8.965V23.14L292.608.452z" fill="#F8EC2C"/></svg>
